dist/img/icons/facebook-orange.svg

<svg width="10" height="17" viewBox="0 0 10 17" fill="none" xmlns="http://www.w3.org/2000/svg">
<path d="M8.50087 9.5625L8.97261 6.4859H6.0231V4.48939C6.0231 3.6477 6.43512 2.82725 7.75611 2.82725H9.09701V0.207852C9.09701 0.207852 7.88018 0 6.71677 0C4.28776 0 2.70004 1.47355 2.70004 4.14109V6.4859H0V9.5625H2.70004V17H6.0231V9.5625H8.50087Z" fill="#FF5500"/>
</svg>

<svg width="10" height="17" fill="none" xmlns="http://www.w3.org/2000/svg"><path d="M8.5 9.563l.473-3.077h-2.95V4.489c0-.841.412-1.662 1.733-1.662h1.341V.207S7.88 0 6.717 0C4.287 0 2.7 1.474 2.7 4.141v2.345H0v3.077h2.7V17h3.323V9.562h2.478z" fill="#F50"/></svg>
